packages/icons/plugins/CrossBridge.svg

<svg width="36" height="36" viewBox="0 0 36 36" xmlns="http://www.w3.org/2000/svg">
<rect x="5" y="4.5" width="27" height="27" rx="2" fill="url(#paint0_linear_898_2514)" />
        <path
            d="M25.2431 8.96494L28.7951 12.5184C28.823 12.5463 28.8452 12.5794 28.8603 12.6158C28.8754 12.6522 28.8831 12.6913 28.8831 12.7307C28.8831 12.7701 28.8754 12.8092 28.8603 12.8456C28.8452 12.882 28.823 12.9151 28.7951 12.9429L25.2416 16.4949C25.1854 16.5508 25.1094 16.5822 25.0301 16.5822C24.9509 16.5822 24.8749 16.5508 24.8186 16.4949L23.9726 15.6504C23.9448 15.6226 23.9226 15.5895 23.9075 15.5531C23.8924 15.5167 23.8847 15.4776 23.8847 15.4382C23.8847 15.3988 23.8924 15.3597 23.9075 15.3233C23.9226 15.2869 23.9448 15.2538 23.9726 15.2259L25.5686 13.6299H20.7731C20.6936 13.6299 20.6173 13.5983 20.561 13.5421C20.5048 13.4858 20.4731 13.4095 20.4731 13.3299V12.1299C20.4731 11.9649 20.6081 11.8299 20.7731 11.8299H25.5656L23.9711 10.2369C23.9433 10.2091 23.9211 10.176 23.906 10.1396C23.8909 10.1032 23.8832 10.0641 23.8832 10.0247C23.8832 9.98526 23.8909 9.94623 23.906 9.90981C23.9211 9.87339 23.9433 9.8403 23.9711 9.81244L24.8186 8.96494C24.8465 8.93705 24.8796 8.91492 24.916 8.89982C24.9524 8.88472 24.9915 8.87695 25.0309 8.87695C25.0703 8.87695 25.1094 8.88472 25.1458 8.89982C25.1822 8.91492 25.2153 8.93705 25.2431 8.96494Z"
            fill="white"
        />
        <g filter="url(#filter0_b_898_2514)">
            <circle cx="12.6172" cy="12.75" r="4.5" fill="url(#paint1_linear_898_2514)" />
        </g>
        <path
            d="M11.7569 27.0351L8.20486 23.4816C8.17696 23.4537 8.15484 23.4206 8.13974 23.3842C8.12464 23.3478 8.11687 23.3087 8.11687 23.2693C8.11687 23.2299 8.12464 23.1908 8.13974 23.1544C8.15484 23.118 8.17696 23.0849 8.20486 23.0571L11.7584 19.5051C11.8146 19.4492 11.8906 19.4178 11.9699 19.4178C12.0491 19.4178 12.1251 19.4492 12.1814 19.5051L13.0274 20.3496C13.0552 20.3774 13.0774 20.4105 13.0925 20.4469C13.1076 20.4833 13.1153 20.5224 13.1153 20.5618C13.1153 20.6012 13.1076 20.6403 13.0925 20.6767C13.0774 20.7131 13.0552 20.7462 13.0274 20.7741L11.4314 22.3701L16.2269 22.3701C16.3064 22.3701 16.3827 22.4017 16.439 22.4579C16.4952 22.5142 16.5269 22.5905 16.5269 22.6701L16.5269 23.8701C16.5269 24.0351 16.3919 24.1701 16.2269 24.1701L11.4344 24.1701L13.0289 25.7631C13.0567 25.7909 13.0789 25.824 13.094 25.8604C13.1091 25.8968 13.1168 25.9359 13.1168 25.9753C13.1168 26.0147 13.1091 26.0538 13.094 26.0902C13.0789 26.1266 13.0567 26.1597 13.0289 26.1876L12.1814 27.0351C12.1535 27.063 12.1204 27.0851 12.084 27.1002C12.0476 27.1153 12.0085 27.123 11.9691 27.123C11.9297 27.123 11.8906 27.1153 11.8542 27.1002C11.8178 27.0851 11.7847 27.063 11.7569 27.0351Z"
            fill="white"
        />
        <g filter="url(#filter1_b_898_2514)">
            <ellipse
                cx="24.3828"
                cy="23.25"
                rx="4.5"
                ry="4.5"
                transform="rotate(-180 24.3828 23.25)"
                fill="url(#paint2_linear_898_2514)"
            />
        </g>
        <defs>
            <filter
                id="filter0_b_898_2514"
                x="3.11719"
                y="3.25"
                width="19"
                height="19"
                filter-units="userSpaceOnUse"
                color-interpolation-filters="sRGB">
                <feFlood flood-opacity="0" result="BackgroundImageFix" />
                <feGaussianBlur in="BackgroundImage" std-deviation="2.5" />
                <feComposite in2="SourceAlpha" operator="in" result="effect1_backgroundBlur_898_2514" />
                <feBlend mode="normal" in="SourceGraphic" in2="effect1_backgroundBlur_898_2514" result="shape" />
            </filter>
            <filter
                id="filter1_b_898_2514"
                x="14.8828"
                y="13.75"
                width="19"
                height="19"
                filter-units="userSpaceOnUse"
                color-interpolation-filters="sRGB">
                <feFlood flood-opacity="0" result="BackgroundImageFix" />
                <feGaussianBlur in="BackgroundImage" std-deviation="2.5" />
                <feComposite in2="SourceAlpha" operator="in" result="effect1_backgroundBlur_898_2514" />
                <feBlend mode="normal" in="SourceGraphic" in2="effect1_backgroundBlur_898_2514" result="shape" />
            </filter>
            <linearGradient
                id="paint0_linear_898_2514"
                x1="19.6844"
                y1="4.5"
                x2="19.568"
                y2="31.5"
                gradient-units="userSpaceOnUse">
                <stop stop-color="#ACCBEE" />
                <stop offset="1" stop-color="#E7F0FD" />
            </linearGradient>
            <linearGradient
                id="paint1_linear_898_2514"
                x1="12.4039"
                y1="17.25"
                x2="12.4039"
                y2="8.25"
                gradient-units="userSpaceOnUse">
                <stop stop-color="#00C6FB" />
                <stop offset="1" stop-color="#005BEA" />
            </linearGradient>
            <linearGradient
                id="paint2_linear_898_2514"
                x1="24.3828"
                y1="18.75"
                x2="24.5451"
                y2="27.75"
                gradient-units="userSpaceOnUse">
                <stop stop-color="#F093FB" />
                <stop offset="1" stop-color="#F5576C" />
            </linearGradient>
        </defs>
</svg>

<svg xmlns="http://www.w3.org/2000/svg" width="36" height="36">
    <rect width="27" height="27" x="5" y="4.5" fill="url(#CrossBridge_svg__a)" rx="2"/>
    <path fill="#fff" d="m25.243 8.965 3.552 3.553a.3.3 0 0 1 0 .425l-3.553 3.552a.3.3 0 0 1-.423 0l-.846-.845a.3.3 0 0 1 0-.424l1.596-1.596h-4.796a.3.3 0 0 1-.3-.3v-1.2a.3.3 0 0 1 .3-.3h4.793l-1.595-1.593a.3.3 0 0 1 0-.425l.848-.847a.3.3 0 0 1 .424 0Z"/>
    <g filter="url(#CrossBridge_svg__b)">
        <circle cx="12.617" cy="12.75" r="4.5" fill="url(#CrossBridge_svg__c)"/>
    </g>
    <path fill="#fff" d="m11.757 27.035-3.552-3.553a.3.3 0 0 1 0-.425l3.553-3.552a.3.3 0 0 1 .423 0l.846.845a.3.3 0 0 1 0 .424l-1.596 1.596h4.796a.3.3 0 0 1 .3.3v1.2a.3.3 0 0 1-.3.3h-4.793l1.595 1.593a.3.3 0 0 1 0 .425l-.848.847a.3.3 0 0 1-.424 0Z"/>
    <g filter="url(#CrossBridge_svg__d)">
        <circle cx="24.383" cy="23.25" r="4.5" fill="url(#CrossBridge_svg__e)" transform="rotate(-180 24.383 23.25)"/>
    </g>
    <defs>
        <linearGradient id="CrossBridge_svg__a" x1="19.684" x2="19.568" y1="4.5" y2="31.5">
            <stop stop-color="#ACCBEE"/>
            <stop offset="1" stop-color="#E7F0FD"/>
        </linearGradient>
        <linearGradient id="CrossBridge_svg__c" x1="12.404" x2="12.404" y1="17.25" y2="8.25">
            <stop stop-color="#00C6FB"/>
            <stop offset="1" stop-color="#005BEA"/>
        </linearGradient>
        <linearGradient id="CrossBridge_svg__e" x1="24.383" x2="24.545" y1="18.75" y2="27.75">
            <stop stop-color="#F093FB"/>
            <stop offset="1" stop-color="#F5576C"/>
        </linearGradient>
        <filter id="CrossBridge_svg__b" width="19" height="19" x="3.117" y="3.25" color-interpolation-filters="sRGB">
            <feFlood flood-opacity="0" result="BackgroundImageFix"/>
            <feGaussianBlur in="BackgroundImage"/>
            <feComposite in2="SourceAlpha" operator="in" result="effect1_backgroundBlur_898_2514"/>
            <feBlend in="SourceGraphic" in2="effect1_backgroundBlur_898_2514" result="shape"/>
        </filter>
        <filter id="CrossBridge_svg__d" width="19" height="19" x="14.883" y="13.75" color-interpolation-filters="sRGB">
            <feFlood flood-opacity="0" result="BackgroundImageFix"/>
            <feGaussianBlur in="BackgroundImage"/>
            <feComposite in2="SourceAlpha" operator="in" result="effect1_backgroundBlur_898_2514"/>
            <feBlend in="SourceGraphic" in2="effect1_backgroundBlur_898_2514" result="shape"/>
        </filter>
    </defs>
</svg>
